web/static/assets/images/confused.svg

<?xml version="1.0" encoding="UTF-8"?>
<svg width="170px" height="195px" viewBox="0 0 170 195" version="1.1" xmlns="http://www.w3.org/2000/svg" xmlns:xlink="http://www.w3.org/1999/xlink">
    <!-- Generator: Sketch 43.2 (39069) - http://www.bohemiancoding.com/sketch -->
    <title>Confused</title>
    <desc>Created with Sketch.</desc>
    <defs>
        <path d="M56.9649107,190.136946 C38.4569107,190.799946 29.2399107,179.466946 32.7269107,161.705946 C33.8509107,155.980946 35.6749107,150.472946 38.0229107,145.150946 C40.0169107,140.630946 40.9089107,135.996946 40.3109107,131.075946 C40.1159107,129.472946 39.3989107,127.467946 41.2059107,126.537946 C43.0229107,125.601946 45.0759107,125.955946 46.9199107,127.070946 C49.6419107,128.714946 50.4059107,131.210946 50.5689107,134.232946 C50.8667536,139.773786 48.4157304,144.625653 50.7890625,146.363946 C53.1623946,148.102239 60.1104856,146.945939 65.2539062,146.363946 C75.9739107,145.150946 86.3829107,142.709946 97.4419107,140.712946 C99.0739107,140.417946 100.716911,140.189946 102.350911,139.908946 C104.894911,139.472946 107.196911,139.778946 107.805911,142.734946 C108.421911,145.716946 106.389911,146.865946 103.877911,147.377946 C98.0249107,148.570946 92.1439107,149.633946 86.3189107,150.945946 C82.6129107,151.780946 78.9729107,152.921946 75.3309107,154.016946 C73.9799107,154.422946 71.9999107,154.656946 72.5289107,156.720946 C72.9419107,158.327946 74.6943058,157.056111 75.9739107,156.950946 C78.7724609,156.720946 82.1539107,157.162946 81.4409107,162.197946 C81.1029107,164.576946 80.5464743,166.37056 77.9639107,166.870946 C75.3309107,167.381104 74.0259107,166.061946 74.0279107,167.767946 C74.0289107,169.329946 75.3309107,167.767946 77.7119107,168.205946 C80.0916456,168.643713 81.8459107,169.421946 81.6969107,172.651946 C81.5699107,175.414946 81.0797591,177.306421 77.8459107,177.879946 C75.9739107,178.211946 74.9329107,177.031946 74.9489107,178.752946 C74.9629107,180.310946 76.4753418,179.240946 77.6249107,179.240946 C78.7744796,179.240946 81.6329107,179.364946 81.4629107,182.576946 C81.3269107,185.130946 80.6849107,187.098946 77.6419107,187.448946 C70.3839107,188.282946 63.2399107,190.029946 56.9649107,190.136946 L109.257812,194.164062" id="path-1"></path>
        <filter x="-7.8%" y="-8.8%" width="115.5%" height="117.6%" filterUnits="objectBoundingBox" id="filter-2">
            <feOffset dx="0" dy="0" in="SourceAlpha" result="shadowOffsetOuter1"></feOffset>
            <feGaussianBlur stdDeviation="2" in="shadowOffsetOuter1" result="shadowBlurOuter1"></feGaussianBlur>
            <feColorMatrix values="0 0 0 0 0   0 0 0 0 0   0 0 0 0 0  0 0 0 0.315160779 0" type="matrix" in="shadowBlurOuter1"></feColorMatrix>
        </filter>
    </defs>
    <g id="Page-1" stroke="none" stroke-width="1" fill="none" fill-rule="evenodd">
        <g id="Confused">
            <g id="confused">
                <circle id="Oval" fill="#F8E71C" fill-rule="nonzero" cx="85" cy="85" r="85"></circle>
                <g id="Page-1" transform="translate(29.000000, 37.000000)">
                    <path d="M85.8977,51.5757 C80.6947,56.8227 74.4217,55.4977 71.8487,48.6137 C69.7747,43.0657 71.4847,35.7097 75.9047,31.6827 C78.4497,29.3637 81.3587,27.6627 84.9187,29.1107 C89.4727,30.9637 90.5907,35.0385742 90.5907,39.2137 C90.5907,43.3888258 89.2527,48.1917 85.8977,51.5757 Z" id="Fill-3" fill="#3C3D43"></path>
                    <path d="M38.7674,33.4007 C38.7604,38.6827 36.8264,43.1237 32.7604,46.4997 C28.4944,50.0427 23.7944,49.0937 21.0864,44.2867 C17.3334,37.6247 20.0114,27.6147 26.6334,23.6867 C29.0894,22.2307 31.6634,22.0867 34.1784,23.5087 C37.1184,25.1717 38.7274,28.7557 38.7674,33.4007" id="Fill-5" fill="#3C3E43"></path>
                    <path d="M40.6377,13.6328 C41.2747,14.5638 42.1817,15.6628 41.2857,16.7888 C40.2847,18.0458 39.1747,16.9668 38.1697,16.5308 C34.8197,15.0818 31.5877,13.2698 28.1227,12.2018 C26.9190567,11.8310549 23.5771484,11.1311437 20.9082259,11.2750036 C18.2393034,11.4188634 11.3655421,13.5860692 6.9787,16.6228 C5.4967,17.6488 3.7747,20.1158 1.9197,18.0398 C0.2307,16.1498 1.1567,13.5058 2.5967,11.5808 C6.2317,6.7218 11.7467,5.2288 17.2677,3.9068 C18.8637,3.5248 20.5637,3.5698 22.2567,3.4158 C30.0727,3.7638 36.2117,7.1618 40.6377,13.6328 Z" id="Fill-9" fill="#3C3E43" transform="translate(21.336512, 11.131144) rotate(7.000000) translate(-21.336512, -11.131144) "></path>
                    <path d="M75.7404,23.9818 C74.1634,24.0038 72.0184,24.4418 71.5974,22.2708 C71.2204,20.3228 72.9704,19.3008 74.5534,18.7888 C85.5064,15.2468 96.5604,13.6858 107.7374,17.7788 C109.3694,18.3768 111.7334,18.9888 111.3124,21.2638 C111.10983,22.3601457 102.248507,20.0117282 94.4562735,20.4027137 C86.477052,20.8030815 79.5217062,23.9301953 75.7404,23.9818 Z" id="Fill-11" fill="#3C3E43" transform="translate(91.453665, 19.686912) rotate(-4.000000) translate(-91.453665, -19.686912) "></path>
                    <path d="M45.2362,82.2703 C55.1832,82.4483 64.6262,85.0533 73.9682,88.1393 C74.4422,88.2953 74.9232,88.4533 75.3642,88.6793 C76.7832,89.4063 78.9862,89.8293 78.1652,92.0233 C77.4492,93.9393 75.5882,92.9133 74.2252,92.5933 C69.6932,91.5323 65.2082,90.2623 60.6582,89.2883 C51.6772,87.3653 42.6132,86.3883 33.4102,87.2913 C32.0562,87.4233 30.0092,88.2533 29.7232,86.0833 C29.4722,84.1813 31.5032,83.9763 32.8972,83.5823 C36.9332,82.4413 41.0802,82.2283 45.2362,82.2703" id="Fill-13" fill="#F29C1F"></path>
                </g>
            </g>
            <g id="Fill-1">
                <use fill="black" fill-opacity="1" filter="url(#filter-2)" xlink:href="#path-1"></use>
                <use fill="#F8E71C" fill-rule="evenodd" xlink:href="#path-1"></use>
            </g>
        </g>
    </g>
</svg>

<?xml version="1.0" encoding="UTF-8"?>
<svg version="1.1" viewBox="0 0 170 195" xmlns="http://www.w3.org/2000/svg" xmlns:xlink="http://www.w3.org/1999/xlink">
<title>Confused</title>
<desc>Created with Sketch.</desc>
<defs>
<path id="a" d="m56.965 190.14c-18.508 0.663-27.725-10.67-24.238-28.431 1.124-5.725 2.948-11.233 5.296-16.555 1.994-4.52 2.886-9.154 2.288-14.075-0.195-1.603-0.912-3.608 0.895-4.538 1.817-0.936 3.87-0.582 5.714 0.533 2.722 1.644 3.486 4.14 3.649 7.162 0.29784 5.5408-2.1532 10.393 0.22015 12.131s9.3214 0.58199 14.465 0c10.72-1.213 21.129-3.654 32.188-5.651 1.632-0.295 3.275-0.523 4.909-0.804 2.544-0.436 4.846-0.13 5.455 2.826 0.616 2.982-1.416 4.131-3.928 4.643-5.853 1.193-11.734 2.256-17.559 3.568-3.706 0.835-7.346 1.976-10.988 3.071-1.351 0.406-3.331 0.64-2.802 2.704 0.413 1.607 2.1654 0.33516 3.445 0.23 2.7986-0.23 6.18 0.212 5.467 5.247-0.338 2.379-0.89444 4.1726-3.477 4.673-2.633 0.51016-3.938-0.809-3.936 0.897 1e-3 1.562 1.303 0 3.684 0.438 2.3797 0.43777 4.134 1.216 3.985 4.446-0.127 2.763-0.61715 4.6545-3.851 5.228-1.872 0.332-2.913-0.848-2.897 0.873 0.014 1.558 1.5264 0.488 2.676 0.488s4.008 0.124 3.838 3.336c-0.136 2.554-0.778 4.522-3.821 4.872-7.258 0.834-14.402 2.581-20.677 2.688l52.293 4.0271"/>
<filter id="b" x="-7.8%" y="-8.8%" width="115.5%" height="117.6%">
<feOffset dx="0" dy="0" in="SourceAlpha" result="shadowOffsetOuter1"/>
<feGaussianBlur in="shadowOffsetOuter1" result="shadowBlurOuter1" stdDeviation="2"/>
<feColorMatrix in="shadowBlurOuter1" values="0 0 0 0 0   0 0 0 0 0   0 0 0 0 0  0 0 0 0.315160779 0"/>
</filter>
</defs>
<g fill="none" fill-rule="evenodd">
<circle cx="85" cy="85" r="85" fill="#F8E71C" fill-rule="nonzero"/>
<g transform="translate(29 37)">
<path d="m85.898 51.576c-5.203 5.247-11.476 3.922-14.049-2.962-2.074-5.548-0.364-12.904 4.056-16.931 2.545-2.319 5.454-4.02 9.014-2.572 4.554 1.853 5.672 5.9279 5.672 10.103s-1.338 8.978-4.693 12.362z" fill="#3C3D43"/>
<path d="m38.767 33.401c-7e-3 5.282-1.941 9.723-6.007 13.099-4.266 3.543-8.966 2.594-11.674-2.213-3.753-6.662-1.075-16.672 5.547-20.6 2.456-1.456 5.03-1.6 7.545-0.178 2.94 1.663 4.549 5.247 4.589 9.892" fill="#3C3E43"/>
<path transform="translate(21.337 11.131) rotate(7) translate(-21.337 -11.131)" d="m40.638 13.633c0.637 0.931 1.544 2.03 0.648 3.156-1.001 1.257-2.111 0.178-3.116-0.258-3.35-1.449-6.582-3.261-10.047-4.329-1.2036-0.37075-4.5456-1.0707-7.2145-0.9268-2.6689 0.14386-9.5427 2.3111-13.93 5.3478-1.482 1.026-3.204 3.493-5.059 1.417-1.689-1.89-0.763-4.534 0.677-6.459 3.635-4.859 9.15-6.352 14.671-7.674 1.596-0.382 3.296-0.337 4.989-0.491 7.816 0.348 13.955 3.746 18.381 10.217z" fill="#3C3E43"/>
<path transform="translate(91.454 19.687) rotate(-4) translate(-91.454 -19.687)" d="m75.74 23.982c-1.577 0.022-3.722 0.46-4.143-1.711-0.377-1.948 1.373-2.97 2.956-3.482 10.953-3.542 22.007-5.103 33.184-1.01 1.632 0.598 3.996 1.21 3.575 3.485-0.20257 1.0963-9.0639-1.2521-16.856-0.86109-7.9792 0.40037-14.935 3.5275-18.716 3.5791z" fill="#3C3E43"/>
<path d="m45.236 82.27c9.947 0.178 19.39 2.783 28.732 5.869 0.474 0.156 0.955 0.314 1.396 0.54 1.419 0.727 3.622 1.15 2.801 3.344-0.716 1.916-2.577 0.89-3.94 0.57-4.532-1.061-9.017-2.331-13.567-3.305-8.981-1.923-18.045-2.9-27.248-1.997-1.354 0.132-3.401 0.962-3.687-1.208-0.251-1.902 1.78-2.107 3.174-2.501 4.036-1.141 8.183-1.354 12.339-1.312" fill="#F29C1F"/>
</g>
<use fill="black" filter="url(#b)" xlink:href="#a"/>
<use fill="#F8E71C" fill-rule="evenodd" xlink:href="#a"/>
</g>
</svg>
